22x22/panel/bitcoin-indicator.svg

<svg xmlns="http://www.w3.org/2000/svg" width="22" height="22" version="1.1">
 <defs>
  <style id="current-color-scheme" type="text/css">
   .ColorScheme-Text { color:#d3dae3; } .ColorScheme-Highlight { color:#4285f4; }
  </style>
 </defs>
 <path style="fill:currentColor" class="ColorScheme-Text" d="M 11,3.0000001 A 8,8 0 0 0 3,11 a 8,8 0 0 0 8,8 8,8 0 0 0 8,-8 8,8 0 0 0 -8,-7.9999999 z m -2,2 1,0 0,2 c 0.30317,-0.011 0.701376,-5e-6 1,0 l 0,-2 1,0 0,2 1,0 c 0.566724,0 1.000203,1 1,1.75 C 13.999662,10 13.566724,10.443175 12.816406,10.5 13.999292,10.500955 15,11 15,12.5 c 0,2.133628 -1.107813,2.361524 -3.015625,2.5 l 0.03125,2 -1,0 -0.03125,-2 L 10,15 l 0,1.982422 -1,0.01758 0,-2 c -0.265759,0 -0.597945,-0.01 -0.873047,0 l -1.126953,0 0,-1 c 0,0 0.690631,0.013 0.675781,0 0.321569,-0.01 0.306584,-0.359224 0.324219,-0.5 L 8,8.5488302 C 7.95236,8.3260692 7.805832,7.9930021 7.345703,8.0000021 7.359423,7.9850071 7,8.0000021 7,8.0000021 l 0,-1 1.066406,0 c 0.235504,0 0.687747,0.01 0.933594,0 l 0,-2 z m 1,3 L 10,10 c 1.269373,0 2.000138,6.6e-5 2,-0.9999999 1.38e-4,-0.9999848 -0.589815,-1 -2,-1 z M 10,11 l 0,3 c 2,0 3.000208,9.9e-5 3,-1.5 2.08e-4,-1.499977 -1,-1.499925 -3,-1.5 z"/>
</svg>

<svg xmlns="http://www.w3.org/2000/svg" width="22" height="22"><defs><style id="current-color-scheme" type="text/css"></style></defs><path style="fill:currentColor;color:#d3dae3" d="M11 3a8 8 0 0 0-8 8 8 8 0 0 0 8 8 8 8 0 0 0 8-8 8 8 0 0 0-8-8zM9 5h1v2c.303-.011.701 0 1 0V5h1v2h1c.567 0 1 1 1 1.75 0 1.25-.433 1.693-1.184 1.75C14 10.501 15 11 15 12.5c0 2.134-1.108 2.362-3.016 2.5l.032 2h-1l-.032-2H10v1.982L9 17v-2c-.266 0-.598-.01-.873 0H7v-1s.69.013.676 0c.321-.01.306-.36.324-.5V8.549c-.048-.223-.194-.556-.654-.549C7.359 7.985 7 8 7 8V7h1.066c.236 0 .688.01.934 0V5zm1 3v2c1.27 0 2 0 2-1s-.59-1-2-1zm0 3v3c2 0 3 0 3-1.5S12 11 10 11z"/></svg>
